assets/Separator-Wide-Sparkles.svg

<?xml version="1.0" encoding="UTF-8"?>
<svg width="75px" height="65px" viewBox="0 0 75 65" version="1.1" xmlns="http://www.w3.org/2000/svg" xmlns:xlink="http://www.w3.org/1999/xlink">
    <!-- Generator: Sketch 54.1 (76490) - https://sketchapp.com -->
    <title>Separator-Wide-Sparkles</title>
    <desc>Created with Sketch.</desc>
    <g id="Page-1" stroke="none" stroke-width="1" fill="none" fill-rule="evenodd">
        <g id="Separator-Wide-Sparkles" fill-rule="nonzero">
            <path d="M28.98,46.982 C24.3315386,49.498271 20.516271,53.3135386 18,57.962 C15.483729,53.3135386 11.6684614,49.498271 7.02,46.982 C11.6683217,44.4655417 15.4835417,40.6503217 18,36.002 C20.516271,40.6504614 24.3315386,44.465729 28.98,46.982 L28.98,46.982 Z M19.9,31.61 C20.1418409,30.8868511 19.9491986,30.0890945 19.404,29.556 L19.424,29.578 C19.0458252,29.1930217 18.5276369,28.9779519 17.988,28.982 L18.012,28.982 C17.4718052,28.978098 16.9530514,29.1931031 16.574,29.578 L16.596,29.556 C16.0519426,30.0897779 15.8601557,30.8872078 16.102,31.61 C16.608,33.14 17.246,34.61 18,36.002 C18.754,34.61 19.392,33.142 19.9,31.61 L19.9,31.61 Z M19.426,29.578 L19.404,29.556 C19.032133,29.1911799 18.5329296,28.9853302 18.012,28.982 L17.988,28.982 C17.4670704,28.9853302 16.967867,29.1911799 16.596,29.556 L16.576,29.578 C16.354,29.802 16.19,30.078 16.096,30.374 C13.7835383,37.3263465 8.32485628,42.7790976 1.37,45.084 C-0.456,45.69 -0.456,48.276 1.37,48.88 C8.33182409,51.1871304 13.7939245,56.6484892 16.102,63.61 C16.708,65.438 19.292,65.438 19.898,63.61 C22.205798,56.648318 27.6680047,51.1868528 34.63,48.88 C36.456,48.276 36.456,45.69 34.63,45.084 C27.675737,42.7788404 22.217774,37.326067 19.906,30.374 C19.8103922,30.0748071 19.6459967,29.8021845 19.426,29.578 Z" id="Shape" fill="#303030"></path>
            <path d="M68.59,45.31 C67.1930408,46.2880429 65.9780429,47.5030408 65,48.9 C64.0219571,47.5030408 62.8069592,46.2880429 61.41,45.31 C62.8069326,44.3319254 64.0219254,43.1169326 65,41.72 C65.9780429,43.1169592 67.1930408,44.3319571 68.59,45.31 L68.59,45.31 Z M66.898,37.938 C67.1403425,37.2152295 66.9484912,36.417532 66.404,35.884 L66.424,35.904 C66.0458252,35.5190217 65.5276369,35.3039519 64.988,35.308 L65.012,35.308 C64.4715127,35.3046245 63.9527167,35.5203686 63.574,35.906 L63.596,35.884 C63.0519426,36.4177779 62.8601557,37.2152078 63.102,37.938 C63.5478283,39.2834506 64.1872031,40.5568103 65,41.718 C65.813498,40.5569301 66.4535494,39.2835646 66.9,37.938 L66.898,37.938 Z M66.426,35.906 L66.404,35.884 C66.0324529,35.5184476 65.533211,35.3118647 65.012,35.308 L64.988,35.308 C64.466789,35.3118647 63.9675471,35.5184476 63.596,35.884 L63.576,35.904 C63.354,36.13 63.19,36.404 63.096,36.7 C62.0374271,39.8725169 59.5447157,42.3600398 56.37,43.412 C54.544,44.018 54.544,46.602 56.37,47.208 C59.55123,48.2617799 62.0472749,50.7570833 63.102,53.938 C63.708,55.766 66.292,55.766 66.898,53.938 C67.9527251,50.7570833 70.44877,48.2617799 73.63,47.208 C75.456,46.602 75.456,44.018 73.63,43.412 C70.455878,42.3597825 67.9638856,39.8722374 66.906,36.7 C66.8101102,36.4015219 66.6457313,36.1296118 66.426,35.906 L66.426,35.906 Z" id="Shape" fill="#7EA1B8"></path>
            <path d="M48,2 L48,22 C48,22.996 48.896,24 50,24 C51.104,24 52,22.996 52,22 L52,2 C52,1.004 51.104,0 50,0 C48.896,0 48,1.004 48,2 Z" id="Path" fill="#F98386"></path>
            <path d="M60,10 L40,10 C38.976,10 38,10.896 38,12 C38,13.104 38.976,14 40,14 L60,14 C61.024,14 62,13.104 62,12 C62,10.896 61.024,10 60,10 Z" id="Path" fill="#F98386"></path>
        </g>
    </g>
</svg>

<svg width="75" height="65" xmlns="http://www.w3.org/2000/svg">
  <g fill-rule="nonzero" fill="none">
    <path d="M28.98 46.982A27.22 27.22 0 0 0 18 57.962a27.22 27.22 0 0 0-10.98-10.98A27.224 27.224 0 0 0 18 36.002a27.22 27.22 0 0 0 10.98 10.98zM19.9 31.61a1.99 1.99 0 0 0-.496-2.054l.02.022a1.992 1.992 0 0 0-1.436-.596h.024a1.998 1.998 0 0 0-1.438.596l.022-.022a1.992 1.992 0 0 0-.494 2.054c.506 1.53 1.144 3 1.898 4.392a27.181 27.181 0 0 0 1.9-4.392zm-.474-2.032l-.022-.022a2.006 2.006 0 0 0-1.392-.574h-.024c-.52.003-1.02.21-1.392.574l-.02.022a1.99 1.99 0 0 0-.48.796A23.216 23.216 0 0 1 1.37 45.084c-1.826.606-1.826 3.192 0 3.796a23.214 23.214 0 0 1 14.732 14.73c.606 1.828 3.19 1.828 3.796 0A23.212 23.212 0 0 1 34.63 48.88c1.826-.604 1.826-3.19 0-3.796a23.214 23.214 0 0 1-14.724-14.71 2.01 2.01 0 0 0-.48-.796z" fill="#303030"/>
    <path d="M68.59 45.31A14.614 14.614 0 0 0 65 48.9a14.614 14.614 0 0 0-3.59-3.59A14.616 14.616 0 0 0 65 41.72a14.614 14.614 0 0 0 3.59 3.59zm-1.692-7.372a1.99 1.99 0 0 0-.494-2.054l.02.02a1.992 1.992 0 0 0-1.436-.596h.024a1.998 1.998 0 0 0-1.438.598l.022-.022a1.992 1.992 0 0 0-.494 2.054A14.6 14.6 0 0 0 65 41.718a14.6 14.6 0 0 0 1.9-3.78h-.002zm-.472-2.032l-.022-.022a2.006 2.006 0 0 0-1.392-.576h-.024c-.521.004-1.02.21-1.392.576l-.02.02c-.222.226-.386.5-.48.796a10.608 10.608 0 0 1-6.726 6.712c-1.826.606-1.826 3.19 0 3.796a10.606 10.606 0 0 1 6.732 6.73c.606 1.828 3.19 1.828 3.796 0a10.606 10.606 0 0 1 6.732-6.73c1.826-.606 1.826-3.19 0-3.796a10.606 10.606 0 0 1-6.724-6.712 2.01 2.01 0 0 0-.48-.794z" fill="#7EA1B8"/>
    <path d="M48 2v20c0 .996.896 2 2 2s2-1.004 2-2V2c0-.996-.896-2-2-2s-2 1.004-2 2z" fill="#F98386"/>
    <path d="M60 10H40c-1.024 0-2 .896-2 2s.976 2 2 2h20c1.024 0 2-.896 2-2s-.976-2-2-2z" fill="#F98386"/>
  </g>
</svg>
